apex/img/safety-icon-1.svg

<svg width="67" height="67" viewBox="0 0 67 67" fill="none" xmlns="http://www.w3.org/2000/svg">
<path d="M29.3125 16.75V29.3125H37.6875V25.125H33.5V16.75H29.3125Z" fill="#E5A132"/>
<path d="M20.9375 16.75C20.9375 9.81197 26.562 4.1875 33.5 4.1875C40.438 4.1875 46.0625 9.81197 46.0625 16.75V29.3125H50.25V16.75C50.25 7.49929 42.7507 0 33.5 0C24.2493 0 16.75 7.49929 16.75 16.75V30.0097L23.0312 38.3847V42.5031L0 50.8781V67H16.75V62.8125H4.1875V53.8094L27.2188 45.4344V36.9903L20.9375 28.6153V16.75Z" fill="#E5A132"/>
<path d="M25.125 62.8125H20.9375V67H25.125V62.8125Z" fill="#E5A132"/>
<path d="M33.5 62.8125H29.3125V67H33.5V62.8125Z" fill="#E5A132"/>
<path d="M50.25 33.5C40.9993 33.5 33.5 40.9993 33.5 50.25C33.5 59.5007 40.9993 67 50.25 67C59.5007 67 67 59.5007 67 50.25C66.9897 41.0035 59.4965 33.5103 50.25 33.5ZM37.6875 50.25C37.6756 43.3235 43.281 37.6988 50.2075 37.6868C52.8282 37.6824 55.3847 38.499 57.5174 40.022L40.022 57.5174C38.5041 55.3981 37.6876 52.8568 37.6875 50.25ZM57.5599 60.4773C55.4272 62.0004 52.8707 62.8169 50.25 62.8125C47.6432 62.8124 45.1019 61.9959 42.9826 60.478L60.478 42.9826C64.5032 48.6194 63.1968 56.4521 57.5599 60.4773Z" fill="#E5A132"/>
</svg>

<svg width="67" height="67" fill="none" xmlns="http://www.w3.org/2000/svg"><path d="M29.313 16.75v12.563h8.375v-4.188H33.5V16.75h-4.188z" fill="#E5A132"/><path d="M20.938 16.75c0-6.938 5.624-12.563 12.562-12.563S46.063 9.813 46.063 16.75v12.563h4.187V16.75C50.25 7.5 42.75 0 33.5 0S16.75 7.5 16.75 16.75v13.26l6.281 8.375v4.118L0 50.878V67h16.75v-4.188H4.187V53.81l23.032-8.375V36.99l-6.282-8.375V16.75zm4.187 46.063h-4.188V67h4.188v-4.188zm8.375 0h-4.188V67H33.5v-4.188z" fill="#E5A132"/><path d="M50.25 33.5C41 33.5 33.5 41 33.5 50.25S41 67 50.25 67 67 59.5 67 50.25c-.01-9.246-7.504-16.74-16.75-16.75zM37.687 50.25c-.011-6.926 5.594-12.551 12.52-12.563a12.536 12.536 0 017.31 2.335L40.022 57.517a12.482 12.482 0 01-2.334-7.267zM57.56 60.477a12.542 12.542 0 01-7.31 2.336c-2.607 0-5.148-.817-7.267-2.335l17.495-17.495c4.025 5.636 2.719 13.47-2.918 17.494z" fill="#E5A132"/></svg>
